Papirus/64x64/apps/com.github.bartzaalberg.snaptastic.svg

<?xml version="1.0" encoding="UTF-8" standalone="no"?>
<svg
   id="_图层_1"
   version="1.1"
   viewBox="0 0 64 64" width="64" height="64"
   sodipodi:docname="com.github.bartzaalberg.snaptastic.svg"
   xml:space="preserve"
   inkscape:version="1.4 (e7c3feb100, 2024-10-09)"
   xmlns:inkscape="http://www.inkscape.org/namespaces/inkscape"
   xmlns:sodipodi="http://sodipodi.sourceforge.net/DTD/sodipodi-0.dtd"
   xmlns="http://www.w3.org/2000/svg"
   xmlns:svg="http://www.w3.org/2000/svg"><sodipodi:namedview
     id="namedview26"
     pagecolor="#505050"
     bordercolor="#eeeeee"
     borderopacity="1"
     inkscape:showpageshadow="0"
     inkscape:pageopacity="0"
     inkscape:pagecheckerboard="0"
     inkscape:deskcolor="#505050"
     inkscape:zoom="10.6875"
     inkscape:cx="32"
     inkscape:cy="32.093567"
     inkscape:window-width="1920"
     inkscape:window-height="939"
     inkscape:window-x="0"
     inkscape:window-y="34"
     inkscape:window-maximized="1"
     inkscape:current-layer="_图层_1" /><!-- Generator: Adobe Illustrator 29.0.1, SVG Export Plug-In . SVG Version: 2.1.0 Build 192)  --><defs
     id="defs6"><style
       id="style1">
      .st0 {
        fill-opacity: .5;
      }

      .st0, .st1, .st2, .st3, .st4, .st5, .st6, .st7 {
        fill: #fff;
      }

      .st8 {
        fill: #133c9a;
      }

      .st2, .st9 {
        display: none;
      }

      .st3 {
        fill-opacity: .2;
      }

      .st4 {
        fill-opacity: .9;
      }

      .st10 {
        fill: #3370ff;
      }

      .st11 {
        fill: url(#_未命名的渐变_3);
      }

      .st12 {
        fill: url(#_未命名的渐变);
      }

      .st5 {
        fill-opacity: .3;
      }

      .st6 {
        fill-opacity: 0;
      }

      .st7 {
        fill-opacity: .7;
      }

      .st13 {
        fill: #00d6b9;
      }

      .st14 {
        fill: url(#_未命名的渐变_2);
      }
    </style><radialGradient
       id="_未命名的渐变"
       data-name="未命名的渐变"
       cx="123.9"
       cy="-40.2"
       fx="123.9"
       fy="-40.2"
       r="59.4"
       gradientTransform="translate(-26.8 25.5) scale(.6 -.7)"
       gradientUnits="userSpaceOnUse"><stop
         offset="0"
         stop-color="#db202e"
         id="stop1" /><stop
         offset="1"
         stop-color="#e01b24"
         id="stop2" /></radialGradient><radialGradient
       id="_未命名的渐变_2"
       data-name="未命名的渐变 2"
       cx="67.6"
       cy="26.8"
       fx="67.6"
       fy="26.8"
       r="105.2"
       gradientTransform="translate(-26.6 25.3) scale(.6 -.7)"
       gradientUnits="userSpaceOnUse"><stop
         offset="0"
         stop-color="#ffb648"
         id="stop3" /><stop
         offset="1"
         stop-color="#ff7800"
         stop-opacity="0"
         id="stop4" /></radialGradient><radialGradient
       id="_未命名的渐变_3"
       data-name="未命名的渐变 3"
       cx="61.7"
       cy="18.6"
       fx="61.7"
       fy="18.6"
       r="68"
       gradientTransform="translate(-26.8 25.8) scale(.6 -.7)"
       gradientUnits="userSpaceOnUse"><stop
         offset="0"
         stop-color="#c64600"
         id="stop5" /><stop
         offset="1"
         stop-color="#a51d2d"
         id="stop6" /></radialGradient></defs><path
     class="st1"
     d="M47.5,64.1H13.8c-7.6,0-13.8-6.3-13.8-13.8V13.7C0,6.2,6.2,0,13.7,0h36.6c7.5,0,13.7,6.2,13.7,13.7v36.6c0,7.5-6.2,13.7-13.7,13.7h-2.9.1Z"
     id="path6"
     style="fill:#8e8e8e;fill-opacity:1" /><g
     id="g26"
     transform="translate(0,-0.5)"><path
       style="opacity:0.2"
       d="M 5,21.5 29.000004,9 l 10.666668,5.555556 6.666668,16.666666 6.666648,2.85475 6e-6,12.347882 L 29.000004,59 5,46.5 Z"
       id="path1" /><path
       style="fill:#cccccc"
       d="M 5.0000056,20.5 29.00001,8.0000002 39.666678,13.555556 46.333346,30.222222 52.999994,33.076972 53,45.424854 29.00001,58 5.0000056,45.5 Z"
       id="path2" /><path
       style="fill:#e4e4e4"
       d="m 53,32.962432 v 12.462422 l -0.0542,0.02728 -0.517172,0.2563 -5.428634,2.844768 -5.999978,3.159226 V 39.250002 l 0.05424,-0.02908 0.517172,-0.28357 5.645294,-2.95928 z"
       id="path3" /><path
       style="fill:#c5c5c5"
       d="m 40.999998,26.826058 -0.465542,0.25711 -11.534466,5.993804 5.478916,2.853756 6.05555,3.167394 0.465542,0.227938 0.465528,-0.227938 8.273928,-4.308898 0.520212,-0.286288 0.521962,-0.257112 2.218366,-1.168852 -5.01336,-2.598472 -0.46556,-0.25529 -0.465528,-0.22976 -5.59002,-2.910282 z"
       id="path4" /><path
       style="fill:#c5c5c5"
       d="M 17.000009,14.324229 16.534464,14.58134 5,20.575144 l 5.478916,2.853754 6.055548,3.167396 0.465545,0.227936 0.465528,-0.227936 8.273927,-4.3089 0.52021,-0.286286 0.521964,-0.25711 2.218364,-1.168854 -5.013358,-2.598472 -0.46556,-0.255289 -0.465528,-0.229759 -5.590019,-2.910284 z"
       id="path5" /><path
       style="fill:#e4e4e4"
       d="m 5.0000114,20.53666 v 12.462422 l 0.05421,0.02728 0.5171736,0.256304 5.428632,2.844764 5.999979,3.159228 v -12.46243 l -0.05425,-0.02909 -0.517174,-0.283566 -5.645295,-2.959282 z"
       id="path6-5" /><path
       style="fill:#e4e4e4"
       d="M 41.000002,26.787578 V 39.25 l -0.05422,0.02728 -0.517174,0.256302 -5.428634,2.844766 -5.999978,3.159226 V 33.075146 l 0.05424,-0.02908 0.517174,-0.283568 5.645292,-2.95928 z"
       id="path7" /><path
       style="fill:#d4d4d4"
       d="m 41.000002,14.325154 v 12.462424 l -0.05422,0.02728 -0.517174,0.2563 -5.428632,2.844768 -5.99998,3.159226 V 20.612724 l 0.05424,-0.02908 0.517174,-0.283566 5.645294,-2.959282 z"
       id="path8" /><path
       style="fill:#a0a0a0"
       d="m 29.000006,8.0366586 -0.465544,0.257111 -11.534464,5.9938024 5.478916,2.853756 6.055548,3.167396 0.465544,0.227936 0.465528,-0.227936 8.273928,-4.3089 0.520212,-0.286286 0.521962,-0.257111 2.218366,-1.168855 -5.01336,-2.598471 -0.46556,-0.255288 -0.465528,-0.22976 -5.59002,-2.9102834 z"
       id="path9" /><path
       style="opacity:0.2;fill:#ffffff"
       d="M 29,8.0351562 28.535156,8.2929688 17,14.289062 l 0.960938,0.5 L 28.535156,9.2929688 29,9.0351562 l 0.464844,0.2578126 5.589844,2.9101562 0.464843,0.230469 0.46875,0.253906 4.054688,2.105469 L 41,14.289062 35.988281,11.6875 35.519531,11.433594 35.054688,11.203125 29.464844,8.2929688 Z M 17,14.324219 16.535156,14.582031 5.0390625,20.554688 5,20.535156 v 1 L 5.039063,21.554686 16.535156,15.582031 17,15.324219 l 0.464844,0.257812 0.447265,0.234375 0.05078,-0.02734 -0.962891,-0.5 0.912109,-0.474609 -0.447265,-0.232422 z m 0.962891,2.464843 -0.04883,0.02539 5.140626,2.677735 0.464843,0.230468 0.46875,0.253906 3.097657,1.605469 0.03125,-0.01563 -4.636719,-2.425781 z M 5.0546875,35.027344 10.597656,37.917969 5.5703125,35.28125 Z"
       id="path10" /><path
       style="fill:#a0a0a0"
       d="m 29.000002,20.575144 -0.465542,0.257112 -11.534464,5.993802 5.478916,2.853754 6.055548,3.167398 0.465542,0.227934 0.46553,-0.227934 8.273928,-4.308902 0.52021,-0.286286 0.521962,-0.257112 2.218366,-1.168852 -5.013358,-2.598472 -0.465562,-0.255288 -0.465526,-0.22976 -5.59002,-2.910282 z"
       id="path11" /><path
       style="fill:#c5c5c5"
       d="m 41.000002,39.250004 v 12.462422 l -0.05422,0.02728 -0.517174,0.256304 -5.428634,2.844764 L 29.000002,58 V 45.537572 l 0.05424,-0.02908 0.517174,-0.283566 5.645292,-2.959282 z"
       id="path12" /><path
       style="fill:#c5c5c5"
       d="M 17.000005,26.787578 V 39.25 l 0.05421,0.02728 0.517174,0.256302 L 23.00002,42.37835 29,45.537576 V 33.075148 L 28.94576,33.046068 28.428586,32.7625 22.783292,29.80322 Z"
       id="path13" /><path
       style="fill:#c5c5c5"
       d="M 5.0000114,32.999088 V 45.46151 l 0.05421,0.02728 0.5171736,0.256302 5.428632,2.844766 5.999979,3.159226 V 39.286656 L 16.945758,39.25757 16.428584,38.974 10.783289,36.01472 Z"
       id="path14" /><path
       style="fill:#e4e4e4"
       d="m 17.000005,39.250004 v 12.462422 l 0.05421,0.02728 0.517174,0.256304 5.428631,2.84476 L 29.000002,58 V 45.537572 l -0.05424,-0.02908 -0.517174,-0.283566 -5.645296,-2.959282 z"
       id="path15" /><path
       style="fill:#f06826"
       d="M 47.000004,6.0008548 46.534462,6.2476546 35,12.001081 l 5.478914,2.739308 6.055548,3.040369 0.465542,0.218795 0.465528,-0.218795 8.273926,-4.136094 0.52021,-0.274805 0.521962,-0.2468 2.218366,-1.121978 -5.013358,-2.4942608 -0.46556,-0.2450506 -0.465526,-0.2205454 -5.59002,-2.7935696 z"
       id="path16" /><path
       style="fill:#f06826"
       d="M 47.000002,6.000008 46.533856,6.247377 35.039066,11.983733 35,11.962902 v 0.03906 11.925788 l 0.05468,0.02604 0.515622,0.244764 5.429682,2.731476 6,3.030922 v 0.03906 L 53,26.966478 58.429688,24.235006 58.945312,23.990242 59,23.9642 V 12.00196 L 53.98698,9.5074392 53.520834,9.2626742 53.05469,9.0413442 47.466148,6.247377 Z m 9.367186,7.319517 -0.216146,0.106762 0.10938,-0.05729 z m -6.494792,3.257459 -2.30208,1.158727 -0.515626,0.273408 -0.05468,0.02864 v -0.03906 l 0.466146,-0.218727 z"
       id="path17" /><path
       style="opacity:0.1;fill:#ffffff"
       d="M 47,6 46.535156,6.2460938 35.039062,11.984375 35,11.964844 v 0.03906 0.960938 l 0.03906,0.01953 L 46.535156,7.2460938 47,7 l 0.464844,0.2460938 5.589844,2.7968752 0.464843,0.21875 0.46875,0.246093 L 59,13.003906 v -1 l -5.011719,-2.4960935 -0.46875,-0.2460937 -0.464843,-0.21875 -5.589844,-2.796875 z m 9.367188,9.320312 -0.105469,0.04688 -0.109375,0.05859 z M 49.871094,18.578125 47.464844,19.78125 47,20 v 0.03906 l 0.05469,-0.03125 0.515624,-0.273437 z"
       id="path18" /><path
       style="opacity:0.2"
       d="m 58.999998,13.001964 v 11.962624 l -0.0542,0.02618 -0.517174,0.246026 L 52.999992,27.96747 47.000016,31 V 19.037374 l 0.05424,-0.02792 0.517174,-0.272196 5.64529,-2.840601 z"
       id="path19" /><path
       style="fill:#f38854"
       d="m 58.999998,12.001084 v 11.962624 l -0.0542,0.02618 -0.517174,0.246026 -5.428632,2.730676 -5.999976,3.03253 V 18.036493 l 0.05424,-0.02792 0.517174,-0.272195 5.64529,-2.840601 z"
       id="path20" /><path
       style="opacity:0.2"
       d="m 35.000018,12.965471 v 11.962623 l 0.0542,0.02618 0.517174,0.246026 5.428632,2.730676 L 47,30.963506 V 19.00088 l -0.05424,-0.02792 -0.517174,-0.272196 -5.64529,-2.8406 z"
       id="path21" /><path
       style="fill:#c85319"
       d="m 35.000018,11.964591 v 11.962623 l 0.0542,0.02618 0.517174,0.246026 5.428632,2.730676 L 47,29.962626 V 18 l -0.05424,-0.02792 -0.517174,-0.272196 -5.64529,-2.8406 z"
       id="path22" /><path
       style="opacity:0.1;fill:#ffffff"
       d="m 59,12 -5.785156,2.894531 -5.644532,2.84375 -0.515624,0.269531 L 47,18.035156 v 1 l 0.05469,-0.02734 0.515624,-0.269531 5.644532,-2.84375 L 59,13 Z"
       id="path23" /><path
       style="opacity:0.1"
       d="m 35,11.964844 v 1 l 5.785156,2.894531 5.644532,2.839844 0.515624,0.273437 L 47,19 v -1 l -0.05469,-0.02734 -0.515624,-0.273437 -5.644532,-2.839844 z"
       id="path24" /></g></svg>

<svg xmlns="http://www.w3.org/2000/svg" width="64" height="64" version="1.1">
 <path style="opacity:0.2" d="M 5,21.5 29.000004,9 l 10.666668,5.555556 6.666668,16.666666 6.666648,2.85475 6e-6,12.347882 L 29.000004,59 5,46.5 Z"/>
 <path style="fill:#cccccc" d="M 5.0000056,20.5 29.00001,8.0000002 39.666678,13.555556 46.333346,30.222222 52.999994,33.076972 53,45.424854 29.00001,58 5.0000056,45.5 Z"/>
 <path style="fill:#e4e4e4" d="m 53,32.962432 v 12.462422 l -0.0542,0.02728 -0.517172,0.2563 -5.428634,2.844768 -5.999978,3.159226 V 39.250002 l 0.05424,-0.02908 0.517172,-0.28357 5.645294,-2.95928 z"/>
 <path style="fill:#c5c5c5" d="m 40.999998,26.826058 -0.465542,0.25711 -11.534466,5.993804 5.478916,2.853756 6.05555,3.167394 0.465542,0.227938 0.465528,-0.227938 8.273928,-4.308898 0.520212,-0.286288 0.521962,-0.257112 2.218366,-1.168852 -5.01336,-2.598472 -0.46556,-0.25529 -0.465528,-0.22976 -5.59002,-2.910282 z"/>
 <path style="fill:#c5c5c5" d="M 17.000009,14.324229 16.534464,14.58134 5,20.575144 l 5.478916,2.853754 6.055548,3.167396 0.465545,0.227936 0.465528,-0.227936 8.273927,-4.3089 0.52021,-0.286286 0.521964,-0.25711 2.218364,-1.168854 -5.013358,-2.598472 -0.46556,-0.255289 -0.465528,-0.229759 -5.590019,-2.910284 z"/>
 <path style="fill:#e4e4e4" d="m 5.0000114,20.53666 v 12.462422 l 0.05421,0.02728 0.5171736,0.256304 5.428632,2.844764 5.999979,3.159228 v -12.46243 l -0.05425,-0.02909 -0.517174,-0.283566 -5.645295,-2.959282 z"/>
 <path style="fill:#e4e4e4" d="M 41.000002,26.787578 V 39.25 l -0.05422,0.02728 -0.517174,0.256302 -5.428634,2.844766 -5.999978,3.159226 V 33.075146 l 0.05424,-0.02908 0.517174,-0.283568 5.645292,-2.95928 z"/>
 <path style="fill:#d4d4d4" d="m 41.000002,14.325154 v 12.462424 l -0.05422,0.02728 -0.517174,0.2563 -5.428632,2.844768 -5.99998,3.159226 V 20.612724 l 0.05424,-0.02908 0.517174,-0.283566 5.645294,-2.959282 z"/>
 <path style="fill:#a0a0a0" d="m 29.000006,8.0366586 -0.465544,0.257111 -11.534464,5.9938024 5.478916,2.853756 6.055548,3.167396 0.465544,0.227936 0.465528,-0.227936 8.273928,-4.3089 0.520212,-0.286286 0.521962,-0.257111 2.218366,-1.168855 -5.01336,-2.598471 -0.46556,-0.255288 -0.465528,-0.22976 -5.59002,-2.9102834 z"/>
 <path style="opacity:0.2;fill:#ffffff" d="M 29 8.0351562 L 28.535156 8.2929688 L 17 14.289062 L 17.960938 14.789062 L 28.535156 9.2929688 L 29 9.0351562 L 29.464844 9.2929688 L 35.054688 12.203125 L 35.519531 12.433594 L 35.988281 12.6875 L 40.042969 14.792969 L 41 14.289062 L 35.988281 11.6875 L 35.519531 11.433594 L 35.054688 11.203125 L 29.464844 8.2929688 L 29 8.0351562 z M 17 14.324219 L 16.535156 14.582031 L 5.0390625 20.554688 L 5 20.535156 L 5 21.535156 L 5.0390625 21.554688 L 16.535156 15.582031 L 17 15.324219 L 17.464844 15.582031 L 17.912109 15.816406 L 17.962891 15.789062 L 17 15.289062 L 17.912109 14.814453 L 17.464844 14.582031 L 17 14.324219 z M 17.962891 16.789062 L 17.914062 16.814453 L 23.054688 19.492188 L 23.519531 19.722656 L 23.988281 19.976562 L 27.085938 21.582031 L 27.117188 21.566406 L 22.480469 19.140625 L 17.962891 16.789062 z M 5.0546875 35.027344 L 10.597656 37.917969 L 5.5703125 35.28125 L 5.0546875 35.027344 z"/>
 <path style="fill:#a0a0a0" d="m 29.000002,20.575144 -0.465542,0.257112 -11.534464,5.993802 5.478916,2.853754 6.055548,3.167398 0.465542,0.227934 0.46553,-0.227934 8.273928,-4.308902 0.52021,-0.286286 0.521962,-0.257112 2.218366,-1.168852 -5.013358,-2.598472 -0.465562,-0.255288 -0.465526,-0.22976 -5.59002,-2.910282 z"/>
 <path style="fill:#c5c5c5" d="m 41.000002,39.250004 v 12.462422 l -0.05422,0.02728 -0.517174,0.256304 -5.428634,2.844764 L 29.000002,58 V 45.537572 l 0.05424,-0.02908 0.517174,-0.283566 5.645292,-2.959282 z"/>
 <path style="fill:#c5c5c5" d="M 17.000005,26.787578 V 39.25 l 0.05421,0.02728 0.517174,0.256302 L 23.00002,42.37835 29,45.537576 V 33.075148 L 28.94576,33.046068 28.428586,32.7625 22.783292,29.80322 Z"/>
 <path style="fill:#c5c5c5" d="M 5.0000114,32.999088 V 45.46151 l 0.05421,0.02728 0.5171736,0.256302 5.428632,2.844766 5.999979,3.159226 V 39.286656 L 16.945758,39.25757 16.428584,38.974 10.783289,36.01472 Z"/>
 <path style="fill:#e4e4e4" d="m 17.000005,39.250004 v 12.462422 l 0.05421,0.02728 0.517174,0.256304 5.428631,2.84476 L 29.000002,58 V 45.537572 l -0.05424,-0.02908 -0.517174,-0.283566 -5.645296,-2.959282 z"/>
 <path style="fill:#f06826" d="M 47.000004,6.0008548 46.534462,6.2476546 35,12.001081 l 5.478914,2.739308 6.055548,3.040369 0.465542,0.218795 0.465528,-0.218795 8.273926,-4.136094 0.52021,-0.274805 0.521962,-0.2468 2.218366,-1.121978 -5.013358,-2.4942608 -0.46556,-0.2450506 -0.465526,-0.2205454 -5.59002,-2.7935696 z"/>
 <path style="fill:#f06826" d="M 47.000002,6.000008 46.533856,6.247377 35.039066,11.983733 35,11.962902 v 0.03906 11.925788 l 0.05468,0.02604 0.515622,0.244764 5.429682,2.731476 6,3.030922 v 0.03906 L 53,26.966478 58.429688,24.235006 58.945312,23.990242 59,23.9642 V 12.00196 L 53.98698,9.5074392 53.520834,9.2626742 53.05469,9.0413442 47.466148,6.247377 Z m 9.367186,7.319517 -0.216146,0.106762 0.10938,-0.05729 z m -6.494792,3.257459 -2.30208,1.158727 -0.515626,0.273408 -0.05468,0.02864 v -0.03906 l 0.466146,-0.218727 z"/>
 <path style="opacity:0.1;fill:#ffffff" d="M 47 6 L 46.535156 6.2460938 L 35.039062 11.984375 L 35 11.964844 L 35 12.003906 L 35 12.964844 L 35.039062 12.984375 L 46.535156 7.2460938 L 47 7 L 47.464844 7.2460938 L 53.054688 10.042969 L 53.519531 10.261719 L 53.988281 10.507812 L 59 13.003906 L 59 12.003906 L 53.988281 9.5078125 L 53.519531 9.2617188 L 53.054688 9.0429688 L 47.464844 6.2460938 L 47 6 z M 56.367188 15.320312 L 56.261719 15.367188 L 56.152344 15.425781 L 56.367188 15.320312 z M 49.871094 18.578125 L 47.464844 19.78125 L 47 20 L 47 20.039062 L 47.054688 20.007812 L 47.570312 19.734375 L 49.871094 18.578125 z"/>
 <path style="opacity:0.2" d="m 58.999998,13.001964 v 11.962624 l -0.0542,0.02618 -0.517174,0.246026 L 52.999992,27.96747 47.000016,31 V 19.037374 l 0.05424,-0.02792 0.517174,-0.272196 5.64529,-2.840601 z"/>
 <path style="fill:#f38854" d="m 58.999998,12.001084 v 11.962624 l -0.0542,0.02618 -0.517174,0.246026 -5.428632,2.730676 -5.999976,3.03253 V 18.036493 l 0.05424,-0.02792 0.517174,-0.272195 5.64529,-2.840601 z"/>
 <path style="opacity:0.2" d="m 35.000018,12.965471 v 11.962623 l 0.0542,0.02618 0.517174,0.246026 5.428632,2.730676 L 47,30.963506 V 19.00088 l -0.05424,-0.02792 -0.517174,-0.272196 -5.64529,-2.8406 z"/>
 <path style="fill:#c85319" d="m 35.000018,11.964591 v 11.962623 l 0.0542,0.02618 0.517174,0.246026 5.428632,2.730676 L 47,29.962626 V 18 l -0.05424,-0.02792 -0.517174,-0.272196 -5.64529,-2.8406 z"/>
 <path style="opacity:0.1;fill:#ffffff" d="M 59 12 L 53.214844 14.894531 L 47.570312 17.738281 L 47.054688 18.007812 L 47 18.035156 L 47 19.035156 L 47.054688 19.007812 L 47.570312 18.738281 L 53.214844 15.894531 L 59 13 L 59 12 z"/>
 <path style="opacity:0.1" d="M 35 11.964844 L 35 12.964844 L 40.785156 15.859375 L 46.429688 18.699219 L 46.945312 18.972656 L 47 19 L 47 18 L 46.945312 17.972656 L 46.429688 17.699219 L 40.785156 14.859375 L 35 11.964844 z"/>
</svg>
